icons/responsive-varB.svg

<svg width="24" height="24" viewBox="0 0 24 24" fill="none" xmlns="http://www.w3.org/2000/svg">
<path fill-rule="evenodd" clip-rule="evenodd" d="M4.8 10.75C4.21421 10.75 3.75 11.2142 3.75 11.8V18.1C3.75 18.8127 4.24064 19.25 4.8 19.25H9.2C9.73441 19.25 10.25 18.7391 10.25 18.1V11.8C10.25 11.2656 9.7391 10.75 9.1 10.75H4.8ZM2.25 11.8C2.25 10.3858 3.38579 9.25 4.8 9.25H9.1C10.4609 9.25 11.75 10.3344 11.75 11.8V18.1C11.75 19.4609 10.6656 20.75 9.2 20.75H4.8C3.35936 20.75 2.25 19.5873 2.25 18.1V11.8Z" fill="black"/>
<path d="M21 5.8V16.1C21 17.1 20.2 18 19.2 18H11V11.8C11 10.8 10.2 10 9.2 10H5V5.8C5 4.8 5.8 4 6.8 4H19.1C20.1 4 21 4.8 21 5.8Z" fill="black"/>
<path fill-rule="evenodd" clip-rule="evenodd" d="M6.8 4.75C6.21421 4.75 5.75 5.21421 5.75 5.8V9.25H9.2C10.6142 9.25 11.75 10.3858 11.75 11.8V17.25H19.2C19.7344 17.25 20.25 16.7391 20.25 16.1V5.8C20.25 5.26559 19.7391 4.75 19.1 4.75H6.8ZM4.25 5.8C4.25 4.38579 5.38579 3.25 6.8 3.25H19.1C20.4609 3.25 21.75 4.33441 21.75 5.8V16.1C21.75 17.4609 20.6656 18.75 19.2 18.75H10.25V11.8C10.25 11.2142 9.78579 10.75 9.2 10.75H4.25V5.8Z" fill="black"/>
</svg>

<svg xmlns="http://www.w3.org/2000/svg" fill="none" viewBox="0 0 24 24">
  <path fill="#000" fill-rule="evenodd" d="M4.8 10.75c-.586 0-1.05.464-1.05 1.05v6.3c0 .713.49 1.15 1.05 1.15h4.4c.534 0 1.05-.51 1.05-1.15v-6.3c0-.534-.51-1.05-1.15-1.05H4.8ZM2.25 11.8A2.543 2.543 0 0 1 4.8 9.25h4.3c1.36 0 2.65 1.084 2.65 2.55v6.3c0 1.36-1.084 2.65-2.55 2.65H4.8c-1.44 0-2.55-1.163-2.55-2.65v-6.3Z" clip-rule="evenodd"/>
  <path fill="#000" d="M21 5.8v10.3c0 1-.8 1.9-1.8 1.9H11v-6.2c0-1-.8-1.8-1.8-1.8H5V5.8C5 4.8 5.8 4 6.8 4h12.3c1 0 1.9.8 1.9 1.8Z"/>
  <path fill="#000" fill-rule="evenodd" d="M6.8 4.75c-.586 0-1.05.464-1.05 1.05v3.45H9.2a2.543 2.543 0 0 1 2.55 2.55v5.45h7.45c.534 0 1.05-.51 1.05-1.15V5.8c0-.534-.51-1.05-1.15-1.05H6.8ZM4.25 5.8A2.543 2.543 0 0 1 6.8 3.25h12.3c1.36 0 2.65 1.084 2.65 2.55v10.3c0 1.36-1.084 2.65-2.55 2.65h-8.95V11.8c0-.586-.464-1.05-1.05-1.05H4.25V5.8Z" clip-rule="evenodd"/>
</svg>
